resources/icons/20px/layout-two-rows.svg

<svg width="20" height="20" viewBox="0 0 20 20" fill="none" xmlns="http://www.w3.org/2000/svg">
<path d="M0 1C0 0.447715 0.447715 0 1 0H19C19.5523 0 20 0.447715 20 1V8C20 8.55228 19.5523 9 19 9H1C0.447716 9 0 8.55228 0 8V1Z" fill="black"/>
<path d="M0 12C0 11.4477 0.447715 11 1 11H19C19.5523 11 20 11.4477 20 12V19C20 19.5523 19.5523 20 19 20H1C0.447716 20 0 19.5523 0 19V12Z" fill="black"/>
</svg>

<svg xmlns="http://www.w3.org/2000/svg" viewBox="0 0 20 20">
  <path d="M0 1a1 1 0 0 1 1-1h18a1 1 0 0 1 1 1v7a1 1 0 0 1-1 1H1a1 1 0 0 1-1-1zM0 12a1 1 0 0 1 1-1h18a1 1 0 0 1 1 1v7a1 1 0 0 1-1 1H1a1 1 0 0 1-1-1z"/>
</svg>
